public/images/icons/key.svg

<svg width="32" height="32" viewBox="0 0 32 32" fill="none" xmlns="http://www.w3.org/2000/svg">
<g clip-path="url(#clip0_16604_1638)">
<path fill-rule="evenodd" clip-rule="evenodd" d="M22.3105 0.75C27.2478 0.750045 31.25 4.75219 31.25 9.68945C31.25 14.6268 27.2478 18.6289 22.3105 18.6289C21.8912 18.6289 21.4782 18.6008 21.0742 18.5449C20.3899 18.4504 19.6794 18.6112 19.1748 19.083L12.3193 25.4951H8.23145V27.25C8.23145 29.459 6.44038 31.2498 4.23145 31.25H0.75V23.8877L12.7637 11.874C13.219 11.4186 13.412 10.7722 13.3809 10.1289C13.3738 9.98339 13.3711 9.83672 13.3711 9.68945C13.3711 4.75217 17.3733 0.75 22.3105 0.75ZM23.4814 6.50488C22.3691 6.50488 21.4669 7.40622 21.4668 8.51855C21.4668 9.63096 22.369 10.5332 23.4814 10.5332C24.5938 10.5331 25.4951 9.63091 25.4951 8.51855C25.495 7.40627 24.5937 6.50497 23.4814 6.50488Z" fill="#9394A0" fill-opacity="0.15" stroke="#9394A0" stroke-width="1.5" stroke-linecap="round" stroke-linejoin="round"/>
</g>
<defs>
<clipPath id="clip0_16604_1638">
<rect width="32" height="32" fill="white"/>
</clipPath>
</defs>
</svg>

<svg xmlns="http://www.w3.org/2000/svg" width="32" height="32" fill="none"><g clip-path="url(#a)"><path fill="#9394a0" fill-opacity=".15" fill-rule="evenodd" stroke="#9394a0" stroke-linecap="round" stroke-linejoin="round" stroke-width="1.5" d="M22.31.75a8.94 8.94 0 0 1 8.94 8.94 8.94 8.94 0 0 1-10.176 8.855c-.684-.095-1.395.066-1.9.538l-6.855 6.412H8.231v1.755a4 4 0 0 1-4 4H.75v-7.362l12.014-12.014c.455-.455.648-1.102.617-1.745A8.94 8.94 0 0 1 22.31.75m1.171 5.755a2.014 2.014 0 1 0 0 4.028 2.014 2.014 0 0 0 0-4.028" clip-rule="evenodd"/></g><defs><clipPath id="a"><path fill="#fff" d="M0 0h32v32H0z"/></clipPath></defs></svg>
